X:12
T:Queen Caroline. WI.012
M:2/4
L:1/8
Q:1/4=140
S:Wm Irwin, 1838 MS, AGG’s Transcription
R:.Country Dance
O:England
A:Lake District
Z:vmp.Chris Partington.2005
K:D
A>d f2|A>e g2|(fa) (df)|e>d c>B|\
A>d f2|A>e g2|fdBc|d2D2:|!
e>^g b2|e>a c’2|d’>b ^g>b|a>c’ e’2|\
e>^g b2|e>a c’2|d’>b ^g>b|” DC”a2A2|]

